X:1
T:Title
%%score { ( 1 3 ) | ( 2 4 ) }
L:1/8
M:2/4
K:F
V:1 treble nm="Grand Piano"
V:3 treble 
V:2 bass 
V:4 bass 
V:1
 z2[Q:1/4=100] [Ac]>[GB] | AA A>A | GF F>G | Ac c>d |[M:1/4] c2 | F>G |[M:2/4] AA A>[GB] | %7
 [Ac]A GF | [EG][EG] [EG]>[FA] |[M:1/4] [EG]2 | [Ec]>[GB] |[M:2/4] AA A>A | GF F>F | %13
 [DFB][DFB] [Fd]>[Fd] |[M:1/4] c2 | c>c |[M:2/4] [Af]c c>d | cA [DFB]>[B,DG] | %18
 [A,CF]<[CFA] [CEA]>[B,EG] | [A,F]4 | [B,DF]<[DFB] [DFB]>[DFB] | [DFB]4 | F<A A>A | A4 | %24
 [EG][FA] [GB]>[GB] |[M:1/4] [GB][FA] | [Ac]>[FA] |[M:2/4] [FA]<[EG] [EG]>[FA] | [EG]4 | A<c c>c | %30
 c4 | [DB]<[Fd] [Fd]>[Fd] | [Fd]4 | [Fc][Fc] [Af]>c | cA [DFB]>[B,DG] | [A,CF]<[CFA] [CEA]>[B,EG] | %36
 [A,F]4 |] %37
V:2
 z2 [F,C]>[F,C] | [F,CF][F,CF] [F,CF]>[F,CF] | [F,B,C][F,A,C] [F,A,C]>[F,B,C] | %3
 [F,CF][F,A,F] [F,A,F]>[F,B,F] |[M:1/4] [F,A,F]2 | [A,C]>[G,CE] | %6
[M:2/4] [F,CF][F,CF] [F,CF]>[F,C] | [F,C][F,CF] [F,B,C][F,A,C] | [C,C][C,C] [C,C]>[C,C] | %9
[M:1/4] [C,C]2 | [C,C]>[C,C] |[M:2/4] [F,CF][F,CF] [F,CF]>[F,CF] | [F,B,C][F,A,C] [F,A,C]>[F,A,C] | %13
 B,,B,, [B,,B,]>[B,,B,] |[M:1/4] [F,A,F]2 | [F,A,F]>[F,A,F] |[M:2/4] [F,C][F,A,F] [F,A,F]>[F,B,F] | %17
 [F,A,F][F,CF] B,,>B,, | C,<C, C,>C, | F,4 | B,,<B,, B,,>B,, | B,,4 | %22
 [F,A,C]<[F,CF] [F,CF]>[F,CF] | [F,CF]4 | [C,C][C,C] [C,C]>[C,C] |[M:1/4] [F,C][F,C] | %26
 [F,C]>[F,C] |[M:2/4] [C,C]<[C,C] [C,C]>[C,C] | [C,C]4 | [F,CF]<[F,A,F] [F,A,F]>[F,A,F] | F2 z2 | %31
 [B,,B,]<[B,,B,] [B,,B,]>[B,,B,] | [B,,B,]4 | [F,A,][F,A,] [F,C]>[F,A,F] | [F,A,F][F,CF] B,,>B,, | %35
 C,<C, C,>C, | F,4 |] %37
V:3
 x4 | x4 | x4 | x4 |[M:1/4] x2 | x2 |[M:2/4] x4 | x4 | x4 |[M:1/4] x2 | x2 |[M:2/4] x4 | x4 | x4 | %14
[M:1/4] x2 | x2 |[M:2/4] x4 | x4 | x4 | x4 | x4 | x4 | x4 | x4 | x4 |[M:1/4] x2 | x2 |[M:2/4] x4 | %28
 x4 | x4 | z2 _E2 | x4 | x4 | x4 | x4 | x4 | x4 |] %37
V:4
 x4 | x4 | x4 | x4 |[M:1/4] x2 | x2 |[M:2/4] x4 | x4 | x4 |[M:1/4] x2 | x2 |[M:2/4] x4 | x4 | x4 | %14
[M:1/4] x2 | x2 |[M:2/4] x4 | x4 | x4 | x4 | x4 | x4 | x4 | x4 | x4 |[M:1/4] x2 | x2 |[M:2/4] x4 | %28
 x4 | x4 | [F,A,]4 | x4 | x4 | x4 | x4 | x4 | x4 |] %37

